X:15001
T:Off to California
R:Hornpipe
C:Trad.
O:Ireland
Z:Paul Hardy's Session Tunebook 2015 (see www.paulhardy.net). Creative Commons cc by-nc-sa licenced.
M:4/4
L:1/8
Q:1/4=120
K:G
(3DEF|"G"GFGB "D"AGED|"G"GBdg "C"e2 (3def|"G"gfgd "C"edBG|"D"ABAG "C"E2 (3DEF|
"G"GFGB "D"AGED|"G"GBdg "C"e2 (3def|"G"gfgd "C"edBG|"D"ABAF "G"G2:|
|:(3def|"G"gfeg "D"fedf|"Em"edef edBd|"G"gfgd "Em"edBG|"D"ABAG "C"E2 (3DEF|
"G"(3GFG BG "D"AGED|"G"GBdg "C"e2 (3def|"G"gfgd "C"edBG|"D"AB (3DEF "G"G2:|

